X:1
T:Ballincollig in the Morning
C:Traditional
N:Play last 24 bars
N:then twice through
N:The Cashel Set, figure 4, tune 1 of 2
Z:Gordon Turnbull, Edinburgh
Z:gturnbull@theflow.org.uk
Z:http://www.theflow.org.uk
B:O'Neill's 1001 (#890)
R:Hornpipe
L:1/8
M:4/4
K:G
B>c | d>BA>B G2 A>B | c>BA>G F2 B>c | d>Bg>e d>BG>A | B>AA>G A2 B>c|
d>BA>B G2 A>B | c>BA>G F2 B>c | d>Bg>e d>BA>B | G2 G>F G2 :||
B>c | d>Bg>e d>BG>B | d>Bg>e d2 B>c | d>Bg>e d>BG>A | B>AA>G A2 g>e | 
d>cB>A  G2 A>B | c>BA>G F2 B>c | d>Bg>e d>BA>B | G2 G>F G2 :||
